X: 1
T: String Quartet in B\b Major opus 64 no 3 mvt 3
C: Franz Joseph Haydn
%%abc-version 2.0
%%abcx-abcm2ps-target-version 5.9.1 (29 Sep 2008)
%%abc-creator hum2abc beta
%%abcx-conversion-date 2021/02/14 14:38:19
%%abc-copyright Copyright (c) 1994, 2000 Center for Computer Assisted Research in the Humanities
%%abc-edited-by Frances Bennion
%%abcx-initial-encoding-date 1997/04/15
%%gracespace 0 6 6
%%humdrum-veritas 4275369943
%%humdrum-veritas-data 1658387779
%%linebreak <none>
%%barnumbers 0
L: 1/4
M: 3/4
N: Derived from op64n3-03.krn
Q: "Minuetto: Allegretto"
%%staves [1 2 3 4]
V: 1
V: 2
V: 3 clef=alto
V: 4 clef=bass
K: Bb
[V:1]z2 a/b/ [I:setbarnb1] |
[V:2]z2 z |
[V:3]z2 z |
[V:4]z2 z |
[V:1]f z a/b/ |
[V:2]D D z |
[V:3]F F z |
[V:4]B,, B,, z |
[V:1]f/d'/ c'/b/ a/g/ |
[V:2]D D E |
[V:3]B, B, B, |
[V:4]B,, B,, B,, |
[V:1]f f/d/ e/g/ |
[V:2]D D/F/ G/E/ |
[V:3]B, B, B, |
[V:4]B,, B,, B,, |
[V:1]f z A/B/ |
[V:2]D z2 |
[V:3]B, z2 |
[V:4]B,, z2 |
[V:1]F d =B |
[V:2]F2 _A |
[V:3]B,2 F |
[V:4]D,3 |
[V:1]c/=B/ d/c/ e/d/ |
[V:2]G z2 |
[V:3]E z2 |
[V:4]E, z2 |
[V:1]f/e/ g g |
[V:2]z3 |
[V:3]z3 |
[V:4]z3 |
[V:1]g z2 |
[V:2]z G G |
[V:3]z C C |
[V:4]z E, E, |
[V:1]z f/<e/ d//c3// |
[V:2]G z2 |
[V:3]C z2 |
[V:4]E, z2 |
[V:1]B z2 |
[V:2]z D D |
[V:3]z B, B, |
[V:4]z F, F, |
[V:1][F3c3] |
[V:2]z E E |
[V:3]z A, A, |
[V:4]z F,, F,, |
[V:1][BD] [Fc] [BD] |
[V:2]D z2 |
[V:3]B, z2 |
[V:4]B,, z2 |
[V:1][cF] [BD] [cF] |
[V:2]z3 |
[V:3]z3 |
[V:4]z3 |
[V:1][BD] z z |
[V:2]z2 z |
[V:3]z2 F, |
[V:4]z2 C |
[V:1]z3 |
[V:2]z3 |
[V:3]D, F, D, |
[V:4]B, C B, |
[V:1]z2 =e/f/ |
[V:2]z2 d |
[V:3]F, D, B |
[V:4]C B, z |
[V:1]a a =e/f/ |
[V:2]c c d |
[V:3]A A B |
[V:4]F F z |
[V:1]a a =e/f/ |
[V:2]c c z |
[V:3]A A z |
[V:4]F F z |
[V:1]c' =b/c'/ a/_b/ |
[V:2]F2 =E |
[V:3]C3- |
[V:4]A,2 G, |
[V:1]^g/a/ ^f/=g/ =e/=f/ |
[V:2]F z2 |
[V:3]C z2 |
[V:4]F, z2 |
[V:1]^c/d/ A/B/ G/=E/ |
[V:2]F z B, |
[V:3]D z =E,/G,/ |
[V:4]B,, z C, |
[V:1]F z2 |
[V:2]A, z2 |
[V:3]F, z2 |
[V:4]F,, z =E,/F,/ |
[V:1]D3 |
[V:2]=B,3 |
[V:3]z3 |
[V:4]G,, G,, ^F,/G,/ |
[V:1]E3 |
[V:2]C3 |
[V:3]z3 |
[V:4]G,, G,, D,/E,/ |
[V:1]C3 |
[V:2]A,3 |
[V:3]z3 |
[V:4]F,, F,, =E,/F,/ |
[V:1]D2 =E/F/ |
[V:2]B,2 ^C/D/ |
[V:3]z3 |
[V:4]F,, F,, z |
[V:1]=E/F/ G/F/ _E/D/ |
[V:2]^C/D/ E/D/ =C/B,/ |
[V:3]F, F, F, |
[V:4]z3 |
[V:1]C z =E/F/ |
[V:2]A, A, A, |
[V:3]F, C C |
[V:4]z F, F, |
[V:1]A z ^G/A/ |
[V:2]z C C |
[V:3]z A, A, |
[V:4]z F, F, |
[V:1]c z =B/c/ |
[V:2]z C C |
[V:3]z A, A, |
[V:4]z F, F, |
[V:1]e z2 |
[V:2]z [CE] [CE] |
[V:3]z A, A, |
[V:4]z F, F, |
[V:1]z2 a/b/ |
[V:2][CE] z2 |
[V:3]A, z2 |
[V:4]F, z2 |
[V:1]f z a/b/ |
[V:2]D D z |
[V:3]F F z |
[V:4]B,, B,, z |
[V:1]f/d'/ c'/b/ a/g/ |
[V:2]D D E |
[V:3]B, B, B, |
[V:4]B,, B,, B,, |
[V:1]f f/d/ e/g/ |
[V:2]D D/F/ G/E/ |
[V:3]B, B, B, |
[V:4]B,, B,, B,, |
[V:1]f z A/B/ |
[V:2]D z2 |
[V:3]B, z2 |
[V:4]B,, z2 |
[V:1]F d =B |
[V:2]F2 _A |
[V:3]B,2 F |
[V:4]D,3 |
[V:1]c/=B/ d/c/ e/d/ |
[V:2]G z2 |
[V:3]E z2 |
[V:4]E, z2 |
[V:1]f/e/ g g |
[V:2]z3 |
[V:3]z3 |
[V:4]z3 |
[V:1]g z2 |
[V:2]z G G |
[V:3]z C C |
[V:4]z E, E, |
[V:1]z f/<e/ d//c3// |
[V:2]G z2 |
[V:3]C z2 |
[V:4]E, z2 |
[V:1]B z2 |
[V:2]z D D |
[V:3]z B, B, |
[V:4]z F, F, |
[V:1][F3c3] |
[V:2]z E E |
[V:3]z A, A, |
[V:4]z F,, F,, |
[V:1][DB] [Fc] [DB] |
[V:2]D z2 |
[V:3]B, z2 |
[V:4]B,, z2 |
[V:1][cF] [BD] [cF] |
[V:2]z3 |
[V:3]z3 |
[V:4]z3 |
[V:1][BD] e d |
[V:2]z c B |
[V:3]z F F |
[V:4]z A, B, |
[V:1]e d g |
[V:2]c B [BE] |
[V:3]F F E |
[V:4]A, B, E, |
[V:1]f z2 |
[V:2][BD] z2 |
[V:3]D z2 |
[V:4]B, z2 |
[V:1]z2 a/b/ |
[V:2]z3 |
[V:3]z3 |
[V:4]z3 |
[V:1]f f a/b/ |
[V:2]B B z |
[V:3]F F z |
[V:4]_D D z |
[V:1]=e e =b/c'/ |
[V:2]B B z |
[V:3]G G z |
[V:4]C C z |
[V:1]e e z |
[V:2]c c z |
[V:3]F F z |
[V:4]A, A, z |
[V:1]z2 =b/c'/ |
[V:2]z3 |
[V:3]z3 |
[V:4]z3 |
[V:1]e' e'/c'/ e'/c'/ |
[V:2]z e/c/ e/c/ |
[V:3]z e/c/ e/c/ |
[V:4]z E/C/ E/C/ |
[V:1]a/f/ e/c/ A/E/ |
[V:2]A/F/ E/C/ A,/E/ |
[V:3]A/F/ E/C/ A,/E,/ |
[V:4]A,/F,/ E,/C,/ A,,/E,,/ |
[V:1]D/F/ B/d/ f/d/ |
[V:2]D/F/ B/d/ f/d/ |
[V:3]D,/F,/ B,/D/ F/D/ |
[V:4]D,,/F,,/ B,,/D,/ F,/D,/ |
[V:1]c e/c/ A/F/ |
[V:2]c z [CEA] |
[V:3]G z C |
[V:4]E, z F, |
[V:1][BD] z f- |
[V:2][DBB,] z d- |
[V:3]D z z |
[V:4]B,, z z |
[V:1]f g/z/ f- |
[V:2]d e/z/ d- |
[V:3]z3 |
[V:4]B,, z2 |
[V:1]f d/z/ B- |
[V:2]d B/z3/ |
[V:3]z2 D- |
[V:4]B,, z2 |
[V:1]B F/z/ D- |
[V:2]z3 |
[V:3]D D,/z/ F,- |
[V:4]B,, z2 |
[V:1]D B,/z/ D |
[V:2]z3 |
[V:3]F, D,/z/ B, |
[V:4]B,, z2 |
[V:1]E E/D/ E |
[V:2]z3 |
[V:3]C C/B,/ C |
[V:4]A,,/F,/ A,,/F,/ A,,/F,/ |
[V:1]D2 D |
[V:2]z3 |
[V:3]B, z B, |
[V:4]B,,/F,/ B,,/F,/ B,,/F,/ |
[V:1]C C/B,/ C |
[V:2]z3 |
[V:3]A, A,/G,/ A, |
[V:4]E,/F,/ E,/F,/ E,/F,/ |
[V:1]B,2 =B, |
[V:2]z2 =B |
[V:3]B, z2 |
[V:4]D,/F,/ D,/F,/ D,/F,/ |
[V:1]C C/=B,/ C |
[V:2]c c/=B/ c |
[V:3]F,3 |
[V:4]A,,/F,/ A,,/F,/ A,,/F,/ |
[V:1]D2 G |
[V:2]d2 g |
[V:3]F, z D/C/ |
[V:4]B,,/F,/ B,,/F,/ B,, |
[V:1]=E E/D/ E |
[V:2]=e e/d/ e |
[V:3]B, [B,G] [B,G] |
[V:4]C, C, C, |
[V:1]F z f/d/ |
[V:2]f z F- |
[V:3][A,F] z D- |
[V:4]F,, F, z |
[V:1]=B2 _a- |
[V:2]F G F |
[V:3]D E D |
[V:4]G,,3- |
[V:1]a g/z/ f- |
[V:2]E D _A- |
[V:3]C =B,2 |
[V:4]G,,3- |
[V:1]f e/z/ d- |
[V:2]A G/z/ F- |
[V:3]C2 _A, |
[V:4]G,,2 =B,, |
[V:1]d c/z/ e/c/ |
[V:2]F E/z/ E- |
[V:3]G, z C- |
[V:4]C, z2 |
[V:1]A2 g- |
[V:2]E F E |
[V:3]C D C |
[V:4]F,,3- |
[V:1]g f/z/ e- |
[V:2]D C G- |
[V:3]B, A,2 |
[V:4]F,,3- |
[V:1]e d/z/ c- |
[V:2]G F/z/ E- |
[V:3]B,2 F, |
[V:4]F,,2 A,, |
[V:1]c B/z/ B- |
[V:2]E D/z/ _A- |
[V:3]F, z2 |
[V:4]B,,2 D,, |
[V:1]B B,/z/ B- |
[V:2]A G/z/ F- |
[V:3]z3 |
[V:4]E,,2 F,, |
[V:1]B B,/z/ B- |
[V:2]F E/z/ D- |
[V:3]z3 |
[V:4]G,,2 F,, |
[V:1]B B,/z/ B- |
[V:2]D C/z/ _D- |
[V:3]z3 |
[V:4]E,,2 =E,, |
[V:1]B A/z/ f- |
[V:2]D C/z3/ |
[V:3]z2 d- |
[V:4]F,,2 z |
[V:1]f g/z/ f- |
[V:2]z3 |
[V:3]d e/z/ d- |
[V:4]B,, z2 |
[V:1]f d/z/ B- |
[V:2]z3 |
[V:3]d B/z/ D- |
[V:4]B,, z2 |
[V:1]B F/z/ D- |
[V:2]z3 |
[V:3]D D,/z/ F,- |
[V:4]B,, z2 |
[V:1]D B,/z/ D |
[V:2]z2 B, |
[V:3]F, D,/z3/ |
[V:4]B,, z2 |
[V:1]E E/D/ E |
[V:2]C C/B,/ C |
[V:3]z3 |
[V:4]A,,/F,/ A,,/F,/ A,,/F,/ |
[V:1]D z D |
[V:2]B, z B, |
[V:3]z3 |
[V:4]B,,/F,/ B,,/F,/ B,,/F,/ |
[V:1]E E/D/ E |
[V:2]C C/B,/ C |
[V:3]z3 |
[V:4]A,,/F,/ A,,/F,/ A,,/F,/ |
[V:1]D z d |
[V:2]B, z D |
[V:3]z2 B, |
[V:4]B,,/F,/ B,,/F,/ B,,/F,/ |
[V:1]e e/d/ e |
[V:2]E E/D/ E |
[V:3]C C/B,/ C |
[V:4]A,,/F,/ A,,/F,/ A,,/F,/ |
[V:1]g z2 |
[V:2]G z2 |
[V:3]E z2 |
[V:4]A,, z2 |
[V:1]z2 f- |
[V:2]z2 d- |
[V:3]z3 |
[V:4]z3 |
[V:1]f d/z/ e- |
[V:2]d B/z/ c- |
[V:3]z3 |
[V:4]B,, z2 |
[V:1]e c/z/ A |
[V:2]c A/z/ E |
[V:3]z2 C |
[V:4]F, z2 |
[V:1]B2 F/d/ |
[V:2]D [B,2D2] |
[V:3]B, F,2 |
[V:4]B,, B,,2 |
[V:1]c c/B/ c/d/ |
[V:2][A,E] [E2A,2] |
[V:3]F, F,2 |
[V:4]B,, B,,2 |
[V:1]B2 F/d/ |
[V:2][DB,] [D2B,2] |
[V:3]F, F,2 |
[V:4]B,, B,,2 |
[V:1]c c/B/ c/d/ |
[V:2][EA,] [E2A,2] |
[V:3]F, F,2 |
[V:4]B,, B,,2 |
[V:1]B z2 |]
[V:2][DB,] z2 |]
[V:3]F, z2 |]
[V:4]B,, z2 |]

